X: 1
T: Major/minor snoa
O: Sweden
R: snoa, g\aangl\aat
M: 4/4
L: 1/8
K: A
cd \
| "A"e2ea c2ce | A2ce a2a2 | "E7"g2bg e2fg |1,3 "A"{g}a2e2 cB :|2,4 "A"{g}a2a2 a2 :|
K: Am
|: (B2 \
| c4) (TB2G2) | E4 (cB)cd | {d}(e3c) (TB2G2) | E4 (cB)cd \
| e3c TB2G2 | A2c2 e2c2 | TB2G2 B2G2 | A4 A2 :|
